icon-svg/holden.svg

<svg xmlns="http://www.w3.org/2000/svg" viewBox="0 0 24 24"><path fill="#44739e" d="M12.9 13.5a2.49 2.49 0 0 1-2.642-1.947c-.442.381-.36 1.421.452 2.3.01-.138-.195-.564-.138-.651.666.548 1.213.511 2.328.298m3.961 3.441a9 9 0 0 1-2.591-.036c-.39-.151-.226-.663-.43-1.189-.042-.123-.138-.163-.138 0a5.27 5.27 0 0 1-.65 2.708l-.139.037c0-.477-.168-.665-.446.111a3.5 3.5 0 0 1-1.057 1.62c.2.018.621.046.687.046a8.35 8.35 0 0 0 5.2-1.927c.803-.74.376-1.439-.436-1.37m-5.013-6.465c.724 2.262 1.6 3.836 4.159 2.457-2.241.521-3.048-1.244-4.033-2.359Zm5.066 1.97c-1.652-.512-1.788-3.331-3.835-3.3 1.602.761 1.259 3.399 3.835 3.3m-6.652-6.161c.033.035.13.39.208.283a4.8 4.8 0 0 1 .9-.753 3.34 3.34 0 0 0-1.446.485c.015.044.302-.049.338-.015M11.9 3.782a8.236 8.236 0 0 0-8.141 8.334 7.6 7.6 0 0 0 .341 2.262 3.56 3.56 0 0 1 2.321-.923 3.92 3.92 0 0 1 3.741 5.081 3.9 3.9 0 0 0-1.84.062 1.5 1.5 0 0 0-.376.556c.234.119.351.2.55.286.02-.16.384-.545.384-.545a4.6 4.6 0 0 1 1.412.022 3.6 3.6 0 0 0 .746-2.3 1.37 1.37 0 0 0-.283-.948 3 3 0 0 1-1.018-1.6A5 5 0 0 0 6.724 13c-.9 0-1.052.138-1.052.138a.82.82 0 0 1-.371-.483s-.2.121-.328.624a.96.96 0 0 1-.552-.555.33.33 0 0 1 .123-.424c.182-.109.36-.179.5-.26.4-.234.446-.386.764-.472a7.3 7.3 0 0 1 2.632.029c-.02.089-.238.943 1.353 1.83-.866-1.2-1.348-1.9.533-3.152 1.267-.845.174-1.95 1.884-2.641 1.283-.518 1.276-.717.877-1.1-.781-.746-.728-.49.359-1.024l-.006-.072c-1.133.359-1.559.1-1.289.446.682.879.783.842-.164 1.407s-1.059.737-1.27 1.648c-.146.628-.948 1.095-1.447 1.433a2.4 2.4 0 0 0-.442-1.062l.157-.056a.75.75 0 0 0 .727.272c.327-.109.4-.6.33-.87a1.056 1.056 0 0 0-1.272-.835c-.271.086-.329.293-.146.846l-.063.171c-.23-.486-1.071-1.106-.935-1.295.574-.81 1.474-.793 1.789-1.121.473-.494-.325-.255.322-.554 2.094-.967 2.893-.287 4.192-1.012.04 1.337.619 1.154 1.331 1.82l-.055.052c-.27-.073-.807-.1-.579.119.654.632 1.32.426 2.026 1.518l-.059.049c-.292-.2-1.007-.431-.711-.083a4.2 4.2 0 0 1 .938 1.238c.287.592.688 2.131 1.942 2.359a2.4 2.4 0 0 1-1.426.594c.654 1.081 2.158 1.038 2.613 1.541a14 14 0 0 0 .283-2.262A8.23 8.23 0 0 0 11.9 3.782M12 2a10 10 0 1 0 10 10A10 10 0 0 0 12 2m0 19a9 9 0 1 1 9-9 9 9 0 0 1-9 9"/></svg>

<?xml version="1.0" encoding="UTF-8"?>
<svg width="24px" fill="#44739e" height="24px" viewBox="0 0 24 24" version="1.1" xmlns="http://www.w3.org/2000/svg" xmlns:xlink="http://www.w3.org/1999/xlink">
            <path d="m 12.9,13.5 a 2.49,2.49 0 0 1 -2.642,-1.947 c -0.442,0.381 -0.36,1.421 0.452,2.3 0.01,-0.138 -0.195,-0.564 -0.138,-0.651 0.666,0.548 1.213,0.511 2.328,0.298 z m -1.49,6.692 v 0 z m 5.451,-3.251 A 8.979,8.979 0 0 1 14.27,16.905 c -0.39,-0.151 -0.226,-0.663 -0.43,-1.189 -0.042,-0.123 -0.138,-0.163 -0.138,0 a 5.272,5.272 0 0 1 -0.65,2.708 l -0.139,0.037 c 0,-0.477 -0.168,-0.665 -0.446,0.111 a 3.5,3.5 0 0 1 -1.057,1.62 c 0.2,0.018 0.621,0.046 0.687,0.046 a 8.349,8.349 0 0 0 5.2,-1.927 c 0.803,-0.74 0.376,-1.439 -0.436,-1.37 z m -5.013,-6.465 c 0.724,2.262 1.6,3.836 4.159,2.457 -2.241,0.521 -3.048,-1.244 -4.033,-2.359 z m 5.066,1.97 c -1.652,-0.512 -1.788,-3.331 -3.835,-3.3 1.602,0.761 1.259,3.399 3.835,3.3 z M 10.262,6.285 c 0.033,0.035 0.13,0.39 0.208,0.283 A 4.771,4.771 0 0 1 11.37,5.815 3.341,3.341 0 0 0 9.924,6.3 v 0 C 9.939,6.344 10.226,6.251 10.262,6.285 Z M 11.9,3.782 a 8.236,8.236 0 0 0 -8.141,8.334 7.609,7.609 0 0 0 0.341,2.262 3.56,3.56 0 0 1 2.321,-0.923 3.92,3.92 0 0 1 3.741,5.081 3.9,3.9 0 0 0 -1.84,0.062 1.49,1.49 0 0 0 -0.376,0.556 c 0.234,0.119 0.351,0.2 0.55,0.286 0.02,-0.16 0.384,-0.545 0.384,-0.545 a 4.582,4.582 0 0 1 1.412,0.022 3.6,3.6 0 0 0 0.746,-2.3 1.366,1.366 0 0 0 -0.283,-0.948 3.011,3.011 0 0 1 -1.018,-1.6 A 4.987,4.987 0 0 0 6.724,13 c -0.9,0 -1.052,0.138 -1.052,0.138 v 0 A 0.818,0.818 0 0 1 5.301,12.655 c 0,0 -0.2,0.121 -0.328,0.624 A 0.959,0.959 0 0 1 4.421,12.724 0.329,0.329 0 0 1 4.544,12.3 c 0.182,-0.109 0.36,-0.179 0.5,-0.26 0.4,-0.234 0.446,-0.386 0.764,-0.472 a 7.321,7.321 0 0 1 2.632,0.029 c -0.02,0.089 -0.238,0.943 1.353,1.83 -0.866,-1.2 -1.348,-1.9 0.533,-3.152 C 11.593,9.43 10.5,8.325 12.21,7.634 13.493,7.116 13.486,6.917 13.087,6.534 12.306,5.788 12.359,6.044 13.446,5.51 L 13.44,5.438 c -1.133,0.359 -1.559,0.1 -1.289,0.446 0.682,0.879 0.783,0.842 -0.164,1.407 -0.947,0.565 -1.059,0.737 -1.27,1.648 -0.146,0.628 -0.948,1.095 -1.447,1.433 A 2.422,2.422 0 0 0 8.828,9.31 L 8.985,9.254 a 0.753,0.753 0 0 0 0.727,0.272 c 0.327,-0.109 0.4,-0.6 0.33,-0.87 A 1.056,1.056 0 0 0 8.77,7.821 C 8.499,7.907 8.441,8.114 8.624,8.667 L 8.561,8.838 C 8.331,8.352 7.49,7.732 7.626,7.543 8.2,6.733 9.1,6.75 9.415,6.422 9.888,5.928 9.09,6.167 9.737,5.868 11.831,4.901 12.63,5.581 13.929,4.856 c 0.04,1.337 0.619,1.154 1.331,1.82 l -0.055,0.052 c -0.27,-0.073 -0.807,-0.1 -0.579,0.119 0.654,0.632 1.32,0.426 2.026,1.518 L 16.593,8.414 C 16.301,8.214 15.586,7.983 15.882,8.331 a 4.208,4.208 0 0 1 0.938,1.238 c 0.287,0.592 0.688,2.131 1.942,2.359 a 2.39,2.39 0 0 1 -1.426,0.594 c 0.654,1.081 2.158,1.038 2.613,1.541 A 14.159,14.159 0 0 0 20.232,11.801 8.23,8.23 0 0 0 11.9,3.782 Z M 12,2 A 10,10 0 1 0 22,12 10,10 0 0 0 12,2 Z m 0,19 a 9,9 0 1 1 9,-9 9,9 0 0 1 -9,9 z"/>

</svg>
